X: 799
T: Possum Up a Gum Stump
B: jims roots
M:2/4
L:1/16
Q: 1/4=100
K:D
V:1 
"D"A,B,DE FEFE | DEFA B2A2 | "G"BABc "D"d2A2 | FDEF "A"B,2A,2 |
"D"A,B,DE FEFE | DEFA B2A2 | "G"BABc "D"d2A2 | "A"FDEF "D"D4 :|
|:"D"fa2f a2a2 | fdfd edB2 | fa2f b2a2 | fdfd "A"e4 |
  "D"fa2f a2a2 | fdfd edB2 | "G"BABc "D"d2A2 | "A"FDEF "D"D4:|
% abcbook-tune_id 6298c279d00f2b3a79af7e34


% abcbook-boost 0
% abcbook-tablature 
% abcbook-transpose 
% abcbook-lastupdated 1654178426613
% abcbook-soundfonts 
% abcbook-repeats 1


